packages/vibrant-icons/assets/icons/Replay/Fill.svg

<svg width="24" height="24" viewBox="0 0 24 24" fill="none" xmlns="http://www.w3.org/2000/svg">
<path d="M12.0001 23.0999C8.04605 23.0999 4.36005 20.9709 2.38105 17.5429L2.33105 17.4564L4.23655 16.3564L4.28655 16.4429C5.87405 19.1919 8.83005 20.8999 12.0006 20.8999C16.9081 20.8999 20.9006 16.9074 20.9006 11.9999C20.9006 7.0924 16.9076 3.0999 12.0001 3.0999C9.72406 3.0999 7.56505 3.9559 5.90705 5.5129L7.47203 6.6092C7.53843 6.65572 7.52479 6.75776 7.44851 6.7852L2.55336 8.54595C2.48834 8.56933 2.41977 8.52132 2.41951 8.45223L2.39978 3.25032C2.39947 3.16926 2.49069 3.12153 2.55711 3.16801L4.07455 4.2299C6.15255 2.1129 9.03555 0.899902 12.0001 0.899902C18.1206 0.899902 23.1001 5.8794 23.1001 11.9999C23.1001 18.1204 18.1206 23.0999 12.0001 23.0999ZM9.40006 7.99985C9.40006 7.92162 9.48584 7.87369 9.55247 7.91469L16.0527 11.9147C16.1162 11.9538 16.1162 12.046 16.0527 12.0851L9.55247 16.0851C9.48584 16.1261 9.40006 16.0782 9.40006 15.9999V7.99985Z" fill="#0C0C0C"/>
</svg>

<svg xmlns="http://www.w3.org/2000/svg" width="24" height="24" fill="none"><path fill="#0C0C0C" d="M12 23.1a11.14 11.14 0 0 1-9.619-5.557l-.05-.087 1.906-1.1.05.087A8.94 8.94 0 0 0 12 20.9c4.907 0 8.9-3.993 8.9-8.9 0-4.908-3.993-8.9-8.9-8.9a8.86 8.86 0 0 0-6.094 2.413l1.565 1.096a.1.1 0 0 1-.023.176l-4.896 1.76a.1.1 0 0 1-.133-.093L2.4 3.25a.1.1 0 0 1 .157-.082L4.075 4.23A11.16 11.16 0 0 1 12 .9C18.12.9 23.1 5.88 23.1 12S18.12 23.1 12 23.1M9.4 8a.1.1 0 0 1 .152-.085l6.5 4a.1.1 0 0 1 0 .17l-6.5 4A.1.1 0 0 1 9.4 16z"/></svg>
